X:1020
T:Alexandra Park
R:Reel
C:Trad. Kerr 1875
O:Scotland, Glasgow
Z:Paul Hardy's Session Tunebook 2015 (see www.paulhardy.net). Creative Commons cc by-nc-sa licenced.
M:4/4
L:1/8
Q:1/4=150
K:G
|:"G"d2BG d2BG|"C"cdef "D"agfe|"G"d2BG d2BG|"D"ABcB ABc^c|
"G"d2BG d2BG|"C"cdef "D"agfe|"G"dgfe "D"dcBA|"G"G2B2 G4:|
|:"D"A2FD "Em"B2GE|"Am"c2AF "Bm"d3d|"C"edcB cBAG|"D"AGFE D4|
"D"A2FD "Em"B2GE|"Am"c2AF "Bm"d3d|"C"edcB "D"cBAG|FGAF "G"G4:|

